X:1
T:The Last Guardian (End Credits)
T:The Last Guardian (End Credits)
T:Written by Takeshi Furukawa Arranged by Skyler Williams 
C:Takeshi Furukawa
%%score { 1 | 2 }
L:1/8
Q:1/4=114
M:4/4
K:Ab
V:1 treble nm="Piano" snm="Pno."
V:2 bass 
V:1
"^Moderato" z8 | z2 F4 _G2 | F4 z4 | z2 A2 _G2 A2 | B4 z EGB | [Fd]4 B2 _G z | B2 A4 B2 | B6 _G2 | %8
 E3 B, EB, z B, | z2 F4 _G2 | F3 B, EB, z B, | z3 A, EA,DA, | E3 E A4 | z2 B4 =B2 | BCEC ACDC | %15
 z A,E_G BA,=BA, | d6 [_Ge]A | [=De]2 A2 B2 =B2 | B4 A4 | z2 a2 b2 =b2 | b4 a4 | z4 _g4 | %22
 a2 _g4 a2 |"^rit." a8 |"^a tempo" z8 | z2 B4 =B2 | BCEC ACDC |"^rit." z A,E_G A2 A,2 | %28
 [A,CA]2 E,2 D2 C2 | B,4 E4 |] %30
V:2
 E,B,G,B, EB,G,B, | E,=B,A,B, EB,A,B, | E,B,G,B, EB,G,B, | D, _G,2 B, E, A,2 C | %4
 G,,E,B,,E, G, z z2 | =A,,F,C,F, =A,C z C | =B,,,_G,,E,A, B,E z A, | B,,,F,,=D,A, B,A, z A, | %8
 E,,B,, G,4 G,2 | E,,=B,,_G,A, B,A, z A, | E,,B,, G,4 G,2 | D,,A,, =E,6 | A,,E, C3 CA,E, | %13
 =E, A,2 D A, E2 =E | [C,A,]8 | [=E,,=B,,]4 [F,,D,]4 | A,,E,B,C EC z2 | B,,, F,,2 =D, A,=D z D | %18
 =B,,A,=E,A, EA,DE, | C,A,E,A, DA,CE, | =B,,A,=E,A, EA,DE, | C,A,E,A, DA,CE, | %22
 =A,,,=E,,D,=E, A,=A,=B,D | E,,B,,G,B, D2 G2 | AECE ACA,E, | =E, A,2 D A, E2 =E | [C,A,]8 | %27
 [=E,,=B,,]4 [F,,D,]4 | [A,,,A,,]8 | [A,,E,]8 |] %30

